img/svg_icons/people2.svg

<svg width="20" height="14" viewBox="0 0 20 14" fill="none" xmlns="http://www.w3.org/2000/svg">
<path fill-rule="evenodd" clip-rule="evenodd" d="M9.88424 9.92407C9.82965 9.92524 8.52696 9.95799 7.54657 10.865C6.60552 11.7352 6.60904 13.1142 6.6108 13.2353H0.00109617C0.00109617 13.2353 -0.079331 11.2662 1.13764 10.582C2.20645 9.98077 3.23512 9.79004 3.85253 9.67557C4.05308 9.63838 4.21024 9.60924 4.31129 9.57669L4.31834 9.57441C4.70084 9.45052 5.10851 9.31848 5.10851 8.79187C5.10851 8.76705 5.10853 8.74323 5.10854 8.72039C5.10882 8.25614 5.10886 8.19029 4.98464 8.12285C4.73573 7.98658 4.58779 7.77605 4.5555 7.6123C4.53089 7.48803 4.51104 7.27265 4.49085 7.05356C4.46144 6.73447 4.43131 6.40751 4.38467 6.34267C4.35496 6.30124 4.31652 6.28857 4.27758 6.27574C4.21264 6.25433 4.14633 6.23248 4.11697 6.076C4.0972 5.97166 4.08564 5.87268 4.07552 5.78592C4.0613 5.66406 4.04989 5.56631 4.02245 5.51165C3.97549 5.41749 3.80994 4.81104 3.91267 4.60226C3.96217 4.50044 4.03402 4.48347 4.09084 4.47005C4.13779 4.45896 4.17447 4.45029 4.17979 4.39816C4.18523 4.34694 4.16297 4.19246 4.13255 3.98132C4.05146 3.4186 3.91238 2.45347 4.08527 1.96826C4.30653 1.34682 4.54519 1.20484 4.77346 1.06904C4.80018 1.05315 4.82676 1.03734 4.85314 1.02086C4.94577 0.963217 5.02609 0.872509 5.12038 0.766016C5.28247 0.582956 5.48586 0.353253 5.86406 0.164691C6.46227 -0.13298 7.34286 0.0395403 7.64226 0.164691C7.68849 0.184104 7.75609 0.208355 7.83799 0.237739C8.28656 0.398666 9.16424 0.713541 9.31069 1.23081C9.31103 1.23207 9.31722 1.24046 9.32797 1.25503C9.39167 1.34135 9.61541 1.64453 9.73044 1.96826C9.90305 2.4527 9.76469 3.41554 9.68377 3.97863C9.65323 4.19115 9.63088 4.34673 9.63651 4.39816C9.64156 4.45032 9.67813 4.45897 9.7251 4.47007C9.78187 4.48349 9.85382 4.50049 9.90362 4.60226C10.0058 4.81104 9.84022 5.41749 9.79325 5.51165C9.76569 5.56655 9.75431 5.66494 9.74011 5.78756C9.73012 5.87393 9.71873 5.97231 9.69932 6.076C9.66961 6.2324 9.60322 6.25431 9.5384 6.2757C9.49949 6.28855 9.46113 6.30121 9.43162 6.34267C9.38494 6.40757 9.35459 6.73502 9.32499 7.05437C9.30471 7.27318 9.28479 7.48818 9.2602 7.6123C9.22791 7.77605 9.08056 7.98658 8.83106 8.12285C8.70737 8.19 8.70742 8.25558 8.70774 8.71453C8.70776 8.73915 8.70778 8.76492 8.70778 8.79187C8.70778 9.31828 9.11514 9.45042 9.49694 9.57427L9.50442 9.57669C9.60665 9.60933 9.76813 9.63979 9.97356 9.67853C10.1362 9.7092 10.3264 9.74507 10.5365 9.79132C10.3275 9.85741 10.1108 9.91062 9.88424 9.92407ZM19.2518 11.2936C20.032 12.0152 19.9997 13.2351 19.9997 13.2351H7.19773C7.19773 13.2351 7.16603 12.0152 7.94623 11.2936C8.77281 10.5286 9.89527 10.5087 9.89527 10.5087C11.1498 10.4374 12.2083 9.55782 12.2083 9.55782V8.55779C12.2083 8.55779 10.6925 8.12854 10.1788 7.6063C10.1788 7.6063 10.5146 6.76943 10.6021 6.46708C10.6884 6.16941 10.6825 5.78285 10.6432 5.15534C10.6373 5.06166 10.6299 4.9561 10.6219 4.84234C10.5762 4.19338 10.5117 3.27747 10.6121 2.7769C10.7301 2.18858 11.0712 1.23942 11.6224 0.944676C12.1736 0.651099 12.8206 0.797303 12.8206 0.797303C12.8206 0.797303 13.2063 0.517761 13.7458 0.403722C14.1661 0.314246 14.8829 0.406647 15.2569 0.661626C15.6314 0.91719 16.1387 1.38036 16.3388 2.06343C16.566 2.83947 16.5701 3.76524 16.4838 4.39216C16.4357 4.74188 16.4709 5.153 16.4973 5.4302C16.5155 5.63021 16.6142 6.1776 16.7756 6.6741C16.9641 7.25541 17.2188 7.67121 17.2188 7.67121C17.2188 7.67121 17.0122 8.06713 16.2731 8.29872C15.4882 8.54434 14.9898 8.55779 14.9898 8.55779V9.55782C14.9898 9.55782 16.0482 10.4374 17.3022 10.5087C17.3022 10.5087 18.4247 10.5286 19.2518 11.2936Z" fill="#DADADA"/>
</svg>

<svg width="20" height="14" fill="none" xmlns="http://www.w3.org/2000/svg"><path fill-rule="evenodd" clip-rule="evenodd" d="M9.884 9.924c-.054.001-1.357.034-2.337.941-.941.87-.938 2.25-.936 2.37H0s-.08-1.969 1.137-2.653c1.068-.601 2.097-.792 2.715-.906.2-.038.357-.067.458-.1l.007-.002c.383-.123.79-.256.79-.782V8.72c0-.464 0-.53-.123-.597-.25-.136-.397-.347-.43-.51a6.793 6.793 0 01-.064-.56c-.03-.319-.06-.645-.106-.71-.03-.042-.068-.054-.107-.067-.065-.022-.132-.044-.161-.2a4.042 4.042 0 01-.041-.29.986.986 0 00-.054-.274c-.047-.095-.212-.701-.11-.91.05-.102.122-.119.179-.132.047-.011.083-.02.089-.072a3.19 3.19 0 00-.047-.417c-.082-.562-.22-1.528-.048-2.013.222-.621.46-.763.688-.899l.08-.048c.093-.058.173-.148.267-.255.162-.183.366-.413.744-.601.598-.298 1.479-.125 1.778 0 .046.02.114.043.196.073.449.16 1.326.476 1.473.993l.017.024c.064.086.287.39.402.713.173.485.035 1.448-.046 2.01a3.04 3.04 0 00-.047.42c.005.052.041.061.088.072.057.013.129.03.179.132.102.209-.064.815-.11.91a.96.96 0 00-.054.276 4.09 4.09 0 01-.04.288c-.03.156-.097.178-.162.2-.039.013-.077.025-.106.067-.047.065-.077.392-.107.711-.02.22-.04.434-.065.558-.032.164-.18.375-.429.51-.124.068-.124.134-.123.593v.077c0 .526.407.658.789.782l.007.003c.103.032.264.063.47.102.162.03.352.066.563.112-.21.066-.426.12-.653.133zm9.368 1.37c.78.721.748 1.941.748 1.941H7.198s-.032-1.22.748-1.941c.827-.765 1.95-.785 1.95-.785 1.254-.072 2.312-.951 2.312-.951v-1s-1.515-.43-2.03-.952c0 0 .337-.837.424-1.139.086-.298.08-.684.041-1.312l-.021-.313c-.046-.649-.11-1.565-.01-2.065.118-.588.46-1.538 1.01-1.832.552-.294 1.199-.148 1.199-.148s.385-.28.925-.393c.42-.09 1.137.003 1.51.258.375.255.883.718 1.083 1.401.227.776.231 1.702.145 2.33-.048.349-.013.76.013 1.037.018.2.117.748.279 1.244.188.581.443.997.443.997s-.207.396-.946.628c-.785.245-1.283.259-1.283.259v1s1.058.88 2.312.95c0 0 1.123.02 1.95.786z" fill="#DADADA"/></svg>
